!!!COM:	Anonymous
!!!OTL:	Fama malum
!!!AGN:	Song; Chanson
!!!SCT:	Ano3001
!!!SCA:	Ano3001
!!!SMS:	Brussels 228
!!!folio: 31v-32r
!!!voices:	4
**kern	**text	**kern	**text	**kern	**text	**kern	**text
*staff4	*staff4	*staff3	*staff3	*staff2	*staff2	*staff1	*staff1
*Ivox	*	*Ivox	*	*Ivox	*	*Ivox	*
*I"Bassus	*	*I"Tenor	*	*I"Contra	*	*I"Superius	*
*I'B	*	*I'T	*	*I'C	*	*I'S	*
*clefF4	*	*clefGv2	*	*clefGv2	*	*clefG2	*
*k[]	*	*k[]	*	*k[]	*	*k[]	*
*M2/1	*	*M2/1	*	*M2/1	*	*M2/1	*
*met(C|)	*	*met(C|)	*	*met(C|)	*	*met(C|)	*
=1-	=1-	=1-	=1-	=1-	=1-	=1-	=1-
0r	.	0r	.	0r	.	0cc	Fa-
=2	=2	=2	=2	=2	=2	=2	=2
0r	.	0r	.	0r	.	1a	-ma,
.	.	.	.	.	.	1b	ma-
=3	=3	=3	=3	=3	=3	=3	=3
0r	.	0c	Fa-	0r	.	1e	.
.	.	.	.	.	.	[1a	.
=4	=4	=4	=4	=4	=4	=4	=4
0r	.	1A	-ma,	0r	.	1a]	.
.	.	1B	ma-	.	.	1g#	.
=5	=5	=5	=5	=5	=5	=5	=5
0r	.	0E	-lum,	0e	Fa-	0g#i	-lum,
=6	=6	=6	=6	=6	=6	=6	=6
0r	.	1.F	qua	1c	-ma,	1.a	qua
.	.	.	.	1d	ma-	.	.
.	.	2G	.	.	.	2b	.
=7	=7	=7	=7	=7	=7	=7	=7
0F	Fa-	2.A	non	[0A	-lum,	1cc	non
.	.	4B	.	.	.	.	.
.	.	1c	a-	.	.	1a	a-
=8	=8	=8	=8	=8	=8	=8	=8
1D	-ma,	1d	.	1A]	.	1a	-li-
1E	ma-	1B	.	[1e	qua	1g	-ud
=9	=9	=9	=9	=9	=9	=9	=9
[0AA	-lum,	2A	.	2e]	.	2r	.
.	.	4G	.	4d	.	1a	ve-
.	.	4F	.	4c	.	.	.
.	.	1E	-li-	2.c	non	.	.
.	.	.	.	.	.	4g	.
.	.	.	.	4d	.	4f	.
=10	=10	=10	=10	=10	=10	=10	=10
0AA]	.	0A	-ud	2e	.	2e	-lo-
.	.	.	.	1d	a-	2f	-ci-
.	.	.	.	.	.	1e	-us
.	.	.	.	[2c	.	.	.
=11	=11	=11	=11	=11	=11	=11	=11
0A	qua	0r	.	2c]	.	1r	.
.	.	.	.	1e	.	.	.
.	.	.	.	.	.	1cc	ul-
.	.	.	.	4d	.	.	.
.	.	.	.	4c	.	.	.
=12	=12	=12	=12	=12	=12	=12	=12
1G	non	0r	.	2d	.	2b	.
.	.	.	.	2e	-li-	1dd	.
2F	a-	.	.	2f	-ud	.	.
2E	-li-	.	.	2g	ve-	[2cc	.
=13	=13	=13	=13	=13	=13	=13	=13
0F	-ud	1A	ve-	2f	-lo-	2cc]	.
.	.	.	.	1e	.	4b	.
.	.	.	.	.	.	4a	.
.	.	1A	-lo-	.	.	2cc	.
.	.	.	.	2d	-ci-	4b	.
.	.	.	.	.	.	4a	.
=14	=14	=14	=14	=14	=14	=14	=14
0E	ve-	2B	-ci-	0e	-us	1g	.
.	.	2.c	.	.	.	.	.
.	.	.	.	.	.	[1cc	.
.	.	4B	.	.	.	.	.
.	.	4A	.	.	.	.	.
.	.	4G	.	.	.	.	.
=15	=15	=15	=15	=15	=15	=15	=15
1F	-lo-	1A	.	1c	.	1cc]	.
2G	-ci-	1G	-us	1r	.	2.b	.
2E	-us	.	.	.	.	.	.
.	.	.	.	.	.	4cc	.
=16	=16	=16	=16	=16	=16	=16	=16
0F	ul-	4D	ul-	1A	us	2dd	.
.	.	4E	.	.	.	.	.
.	.	4F	.	.	.	1cc	.
.	.	4G	.	.	.	.	.
.	.	4A	.	2r	.	.	.
.	.	4B	.	.	.	.	.
.	.	4c	.	4A	ul-	4b	.
.	.	4d	.	4B	.	4a	.
=17	=17	=17	=17	=17	=17	=17	=17
0E	-lum;	2e	.	4c	.	2g	.
.	.	.	.	4d	.	.	.
.	.	2c	.	1e	.	1a	.
.	.	1B	.	.	.	.	.
.	.	.	.	2e	-lum;	2g#i	.
=18	=18	=18	=18	=18	=18	=18	=18
0r	.	1A	-lum;	2c	mo-	0a	-lum;
.	.	.	.	1f	.	.	.
.	.	1d	mo-	.	.	.	.
.	.	.	.	[2F	-bi-	.	.
=19	=19	=19	=19	=19	=19	=19	=19
0r	.	2c	-bi-	2F]	.	1r	.
.	.	2A	-li-	2F	-li-	.	.
.	.	1B	-ta-	1G	-ta-	1dd	mo-
=20	=20	=20	=20	=20	=20	=20	=20
0r	.	2A	.	2A	.	2cc	-bi-
.	.	2E	.	2G	.	2b	-li-
.	.	1F	-te	2c	.	1a	-ta-
.	.	.	.	2d	.	.	.
=21	=21	=21	=21	=21	=21	=21	=21
0r	.	2E	vi-	2e	-te	2g	-te
.	.	2F	.	1d	vi-	2f	vi-
.	.	2G	.	.	.	1e	-get
.	.	2A	.	2c	-get	.	.
=22	=22	=22	=22	=22	=22	=22	=22
1r	.	2D	-get	4d	vi-	0r	.
.	.	.	.	4c	.	.	.
.	.	1d	vi-	4B	.	.	.
.	.	.	.	4A	.	.	.
1E	mo-	.	.	2.G	.	.	.
.	.	2c	.	.	.	.	.
.	.	.	.	4A	.	.	.
=23	=23	=23	=23	=23	=23	=23	=23
2D	-bi-	2B	.	2B	.	0r	.
2C	-li-	1A	.	2c	.	.	.
1BB	-ta-	.	.	2.d	.	.	.
.	.	2G	.	.	.	.	.
.	.	.	.	4B	.	.	.
=24	=24	=24	=24	=24	=24	=24	=24
2AA	-te	2F	.	4c	.	0r	.
.	.	.	.	4A	.	.	.
2GG	vi-	2G	.	1d	.	.	.
1AA	-get	1E	-res-	.	.	.	.
.	.	.	.	2c#i	-res-	.	.
=25	=25	=25	=25	=25	=25	=25	=25
0r	.	0D	-que	1d	-que	[0f	vi-
.	.	.	.	1r	.	.	.
=26	=26	=26	=26	=26	=26	=26	=26
0r	.	0B-	ad-	0d	ad-	1f]	.
.	.	.	.	.	.	1g	.
=27	=27	=27	=27	=27	=27	=27	=27
1r	.	1c	-qui-	1e	-qui-	2g	-res-
.	.	.	.	.	.	1a	-que
[1D	vi-	1A	.	1d	-rit	.	.
.	.	.	.	.	.	4g	.
.	.	.	.	.	.	4f	.
=28	=28	=28	=28	=28	=28	=28	=28
1D]	.	1d	.	1.r	.	1f	.
[1E	-res-	1G	-rit	.	.	2.g	ad-
.	.	.	.	2B	e-	.	.
.	.	.	.	.	.	4a	.
=29	=29	=29	=29	=29	=29	=29	=29
2E]	.	0r	.	1e	-un-	2b	.
2C	-que	.	.	.	.	1cc	-qui-
[1F	ad-	.	.	1c	-do;	.	.
.	.	.	.	.	.	4b	.
.	.	.	.	.	.	4a	.
=30	=30	=30	=30	=30	=30	=30	=30
1F]	.	1.D	e-	1f	.	2a	-rit
.	.	.	.	.	.	1dd	e-
1G	-qui-	.	.	1r	.	.	.
.	.	2E	.	.	.	4cc	.
.	.	.	.	.	.	4b	.
=31	=31	=31	=31	=31	=31	=31	=31
2F	-rit	2F	.	1c	par-	2a	-un-
2E	e-	2G	.	.	.	1g	.
1D	-un-	1A	-un-	1d	.	.	.
.	.	.	.	.	.	2f#i	.
=32	=32	=32	=32	=32	=32	=32	=32
0GG	-do;	1G	-do;	1.B	.	1g	-do;
.	.	1r	.	.	.	1r	.
.	.	.	.	4A	.	.	.
.	.	.	.	4G	.	.	.
=33	=33	=33	=33	=33	=33	=33	=33
0r	.	1A	par-	1c	.	1e	par-
.	.	2G	-va	1B	-va	2e	-va
.	.	2G	me-	.	.	2d	me-
=34	=34	=34	=34	=34	=34	=34	=34
1AA	par-	1E	-tu	0A	me-	1c	-tu
2AA	-va	1E	pri-	.	.	1c	pri-
2AA	me-	.	.	.	.	.	.
=35	=35	=35	=35	=35	=35	=35	=35
1BB-i	-tu	0D	-mo,	2.F	-tu	1d	-mo,
.	.	.	.	4D	.	.	.
1BB-i	pri-	.	.	[1d	pri-	1r	.
=36	=36	=36	=36	=36	=36	=36	=36
0AA	-mo,	0E	.	2d]	.	1a	mox
.	.	.	.	2c	.	.	.
.	.	.	.	2c	-mo,	[1cc	se-
.	.	.	.	[2e	mox	.	.
=37	=37	=37	=37	=37	=37	=37	=37
0E	mox	0r	.	2e]	.	1cc]	.
.	.	.	.	2e	se-	.	.
.	.	.	.	1g	.	1b	-se
=38	=38	=38	=38	=38	=38	=38	=38
0F	se-	0c	mox	0f	.	1a	at-
.	.	.	.	.	.	[1cc	-tol-
=39	=39	=39	=39	=39	=39	=39	=39
0C	-se	1.e	se-	1g	.	2cc]	.
.	.	.	.	.	.	4b	.
.	.	.	.	.	.	4a	.
.	.	.	.	1e	.	2.g	.
.	.	2c	.	.	.	.	.
.	.	.	.	.	.	4a	.
=40	=40	=40	=40	=40	=40	=40	=40
0r	.	1d	.	1f	.	2b	.
.	.	.	.	.	.	1a	.
.	.	2c	.	2e	-se	.	.
.	.	2B	.	2d	at-	2g	.
=41	=41	=41	=41	=41	=41	=41	=41
1r	.	2A	.	2c	-tol-	2f	.
.	.	2B	.	2d	.	1g	-lit
1G	at-	1E	-se	1B	-lit	.	.
.	.	.	.	.	.	2e	in
=42	=42	=42	=42	=42	=42	=42	=42
2F	-tol-	0r	.	2A	in	2d	au-
2E	-lit	.	.	2.B	au-	1e	.
1F	in	.	.	.	.	.	.
.	.	.	.	4A	.	.	.
.	.	.	.	4A	.	2d	.
.	.	.	.	4G	.	.	.
=43	=43	=43	=43	=43	=43	=43	=43
1.E	au-	2r	.	1.B	-ras	1e	-ras
.	.	4E	at-	.	.	.	.
.	.	4F	.	.	.	.	.
.	.	4G	.	.	.	1r	.
.	.	4A	.	.	.	.	.
4D	.	[2B	-tol-	[2G	in-	.	.
4C	.	.	.	.	.	.	.
=44	=44	=44	=44	=44	=44	=44	=44
0BB	-ras	4B]	.	2G]	.	1.d	in-
.	.	4A	.	.	.	.	.
.	.	4G	.	2B	-gre-	.	.
.	.	4F	.	.	.	.	.
.	.	1G	-lit	2B	-di-	.	.
.	.	.	.	4A	.	2e	.
.	.	.	.	4B	.	.	.
=45	=45	=45	=45	=45	=45	=45	=45
0r	.	1A	in	2c	.	2f	.
.	.	.	.	4d	.	2e	-gre-
.	.	.	.	4e	.	.	.
.	.	2.A	au-	2f	.	[1a	-di-
.	.	.	.	2e	-tur-	.	.
.	.	4G	.	.	.	.	.
=46	=46	=46	=46	=46	=46	=46	=46
0r	.	2F	.	2d	-que	2a]	.
.	.	2E	.	1e	so-	2g	-tur-
.	.	1F	.	.	.	2cc	-que
.	.	.	.	2d	.	4b	.
.	.	.	.	.	.	4a	.
=47	=47	=47	=47	=47	=47	=47	=47
0r	.	1E	.	1e	.	1g	.
.	.	[1B	.	2d	.	1r	.
.	.	.	.	[2g	.	.	.
=48	=48	=48	=48	=48	=48	=48	=48
1BB	in-	1B]	.	4g]	.	1dd	so-
.	.	.	.	4f	.	.	.
.	.	.	.	4e	.	.	.
.	.	.	.	4d	.	.	.
2C	-gre-	1A	-ras	2e	.	2cc	.
2D	-di-	.	.	2d	.	2a	.
=49	=49	=49	=49	=49	=49	=49	=49
1E	-tur-	2r	.	4G	.	2g	.
.	.	.	.	4A	.	.	.
.	.	2G	in-	4B	.	1b	.
.	.	.	.	4c	.	.	.
2D	-que	1A	-gre-	1d	.	.	.
2F	so-	.	.	.	.	[2a	.
=50	=50	=50	=50	=50	=50	=50	=50
1E	-lo	1B	.	1e	-lo	2a]	.
.	.	.	.	.	.	2g#i	.
1r	.	1A	-di-	2r	.	1a	.
.	.	.	.	[2c	et	.	.
=51	=51	=51	=51	=51	=51	=51	=51
1A	et	1c	.	4c]	.	1e	-lo
.	.	.	.	4d	.	.	.
.	.	.	.	4e	.	.	.
.	.	.	.	4f	.	.	.
2G	ca-	2d	-tur-	2g	ca-	1r	.
2E	-put	[2e	-que	2G	.	.	.
=52	=52	=52	=52	=52	=52	=52	=52
0F	in-	2e]	.	1A	-put	0r	.
.	.	4d	so-	.	.	.	.
.	.	4c	.	.	.	.	.
.	.	2d	.	2r	.	.	.
.	.	2A	.	[2c	in-	.	.
=53	=53	=53	=53	=53	=53	=53	=53
0E	-ter	2c	.	4c]	.	2.g	et
.	.	.	.	4d	.	.	.
.	.	2B	-lo	1e	.	.	.
.	.	.	.	.	.	4a	.
.	.	1r	.	.	.	2b	ca-
.	.	.	.	[2e	-ter	2cc	.
=54	=54	=54	=54	=54	=54	=54	=54
1F	nu-	0r	.	2e]	.	1a	-put
.	.	.	.	2d	nu-	.	.
2E	-bi-	.	.	2e	.	1r	.
2D	-la	.	.	2f	-bi-	.	.
=55	=55	=55	=55	=55	=55	=55	=55
0E	con-	0B	et	0e	-la	1g	in-
.	.	.	.	.	.	1g	-ter
=56	=56	=56	=56	=56	=56	=56	=56
0AA	-dit,	1A	ca-	0r	.	2a	.
.	.	.	.	.	.	4g	.
.	.	.	.	.	.	4f	.
.	.	[1c	.	.	.	1e	.
=57	=57	=57	=57	=57	=57	=57	=57
1A	nu-	1c]	.	0r	.	1.r	.
2G	-bi-	1d	-put	.	.	.	.
2F	-la	.	.	.	.	2a	nu-
=58	=58	=58	=58	=58	=58	=58	=58
0G	con-	1B	in-	1d	nu-	1dd	-bi-
.	.	2.E	.	[1g	.	1b	-la
.	.	4F	.	.	.	.	.
=59	=59	=59	=59	=59	=59	=59	=59
0C	-dit,	2.G	.	2g]	.	2r	.
.	.	.	.	2e	-bi-	1cc	con-
.	.	4A	.	.	.	.	.
.	.	2B	.	1e	-la	.	.
.	.	2c	.	.	.	[2a	-dit,
=60	=60	=60	=60	=60	=60	=60	=60
1c	nu-	2F	-ter	1.r	.	2a]	.
.	.	2E	nu-	.	.	2g	nu-
2B	-bi-	2G	-bi-	.	.	2g	-bi-
2A	-la	2F	-la	2c	con-	2a	-la
=61	=61	=61	=61	=61	=61	=61	=61
0B	con-	4E	con-	2e	.	2g	.
.	.	4F	.	.	.	.	.
.	.	4G	.	2d	.	2.dd	con-
.	.	4A	.	.	.	.	.
.	.	4B	.	2G	.	.	.
.	.	4c	.	.	.	4cc	.
.	.	2d	.	[2g	.	4b	.
.	.	.	.	.	.	4a	.
=62	=62	=62	=62	=62	=62	=62	=62
0E	-dit,	2e	.	2g]	.	2g	.
.	.	2c	.	2e	.	1a	.
.	.	1B	.	1e	-dit,	.	.
.	.	.	.	.	.	2g#i	.
=63	=63	=63	=63	=63	=63	=63	=63
1F	nu-	[0Al	-dit,	2c	con-	[0al	-dit.
.	.	.	.	1d	.	.	.
2D	-bi-	.	.	.	.	.	.
2C	-la	.	.	2e	.	.	.
=64	=64	=64	=64	=64	=64	=64	=64
0D	con-	0A_	.	1f	.	0a_	.
.	.	.	.	1d	.	.	.
=65	=65	=65	=65	=65	=65	=65	=65
0AAl	-dit.	0A]	.	0el	-dit.	0a]	.
==	==	==	==	==	==	==	==
*-	*-	*-	*-	*-	*-	*-	*-
!!!RDF**kern: l=long note in original notation
!!!RDF**kern: i=editorial accidental
!!!ENC:	Jesse Rodin 8/13/2013
!!!END:	2013/08/13/
!!!EED:	Jesse Rodin
!!!EEV:	2013/08/14/
!!!ONB:	Translated from MusicXML and edited on 2013/08/14/ by Craig Sapp
!!muse2ps: C^@{COM}\n@{SMS}, @{folio}^i2I150v85,85,85,130Q16
